source/img/icon-insta.svg

<?xml version="1.0" encoding="utf-8"?>
<!-- Generator: Adobe Illustrator 22.1.0, SVG Export Plug-In . SVG Version: 6.00 Build 0)  -->
<svg version="1.1" id="Layer_1" xmlns="http://www.w3.org/2000/svg" xmlns:xlink="http://www.w3.org/1999/xlink" x="0px" y="0px" viewBox="0 0 23 23" enable-background="new 0 0 23 23" xml:space="preserve">
<path fill="#231F20" d="M17.0019989,1.4989853c2.4800014,0,4.4980011,2.02,4.4980011,4.5009999v11
  c0,2.480999-2.0179996,4.5-4.4980011,4.5H6.0100002c-2.4800003,0-4.4980001-2.019001-4.4980001-4.5v-11
  c0-2.4809997,2.0179999-4.5,4.4980001-4.5h10.9919987 M17.0019989-0.0000146H6.0100002
  c-3.3000002,0-5.9970002,2.6989999-5.9970002,6v11.0010014c0,3.2979984,2.697,5.9989986,5.9970002,5.9989986h10.9950008
  C20.3010006,22.9999847,23,20.2989845,23,16.9989853V5.9999852C23,2.6989853,20.3010006-0.0000146,17.0019989-0.0000146
  L17.0019989-0.0000146z"/>
<path fill="#231F20" d="M11.5059996,7.0779853c2.4399996,0,4.4289999,1.9850001,4.4289999,4.4280009
  c0,2.4400005-1.9890003,4.4300003-4.4289999,4.4300003c-2.4429998,0-4.428-1.9890003-4.428-4.4300003
  C7.0780001,9.0629854,9.0629997,7.0779853,11.5059996,7.0779853 M11.5059996,5.5779853
  c-3.2729998,0-5.928,2.6540008-5.928,5.9280009s2.6539998,5.9269991,5.928,5.9269991s5.9259996-2.6529989,5.9259996-5.9269991
  S14.7799997,5.5779853,11.5059996,5.5779853L11.5059996,5.5779853z"/>
<circle fill="#231F20" cx="17.6459999" cy="5.3789854" r="1.3409997"/>
</svg>

<svg xmlns="http://www.w3.org/2000/svg" viewBox="0 0 23 23"><path d="M17.002 1.499c2.48 0 4.498 2.02 4.498 4.501v11c0 2.481-2.018 4.5-4.498 4.5H6.01A4.504 4.504 0 0 1 1.512 17V6c0-2.481 2.018-4.5 4.498-4.5h10.992m0-1.5H6.01C2.71 0 .013 2.699.013 6v11.001C.013 20.299 2.71 23 6.01 23h10.995C20.301 23 23 20.299 23 16.999V6c0-3.301-2.699-6-5.998-6z"/><path d="M11.506 7.078a4.434 4.434 0 0 1 4.429 4.428c0 2.44-1.989 4.43-4.429 4.43a4.434 4.434 0 0 1-4.428-4.43 4.431 4.431 0 0 1 4.428-4.428m0-1.5a5.929 5.929 0 0 0 0 11.855c3.274 0 5.926-2.653 5.926-5.927s-2.652-5.928-5.926-5.928z"/><circle cx="17.646" cy="5.379" r="1.341"/></svg>
